images/telegram-logo.svg

<svg width="14" height="12" viewBox="0 0 14 12" fill="none" xmlns="http://www.w3.org/2000/svg">
<path d="M12.4431 0.0735832L0.623071 4.63158C-0.183596 4.95558 -0.178929 5.40558 0.475071 5.60625L3.50974 6.55292L10.5311 2.12292C10.8631 1.92092 11.1664 2.02958 10.9171 2.25092L5.2284 7.38492H5.22707L5.2284 7.38558L5.01907 10.5136C5.32574 10.5136 5.46107 10.3729 5.63307 10.2069L7.10707 8.77358L10.1731 11.0382C10.7384 11.3496 11.1444 11.1896 11.2851 10.5149L13.2977 1.02958C13.5037 0.203583 12.9824 -0.170417 12.4431 0.0735832Z" fill="black"/>
</svg>

<svg width="14" height="12" viewBox="0 0 14 12" fill="none" xmlns="http://www.w3.org/2000/svg"><path d="M12.443.074.623 4.632c-.807.324-.802.774-.148.974l3.035.947 7.021-4.43c.332-.202.635-.093.386.128L5.228 7.385l-.209 3.129c.307 0 .442-.141.614-.307l1.474-1.433 3.066 2.264c.565.312.971.152 1.112-.523l2.013-9.485c.206-.826-.316-1.2-.855-.956Z" fill="#444"/></svg>
